interface/resources/qml/hifi/simplifiedUI/inputDeviceButton/images/mic-clip-i.svg

<svg width="32" height="32" viewBox="0 0 32 32" fill="none" xmlns="http://www.w3.org/2000/svg">
<g clip-path="url(#clip0)">
<path fill-rule="evenodd" clip-rule="evenodd" d="M25.3383 4.13446L23.8713 5.60152C21.9374 3.46761 19.2033 2.06723 16.0691 2.06723C13.0683 2.06723 10.4009 3.40093 8.46707 5.40147L7 3.9344C9.26728 1.53375 12.5348 0 16.0691 0C19.7368 0 23.071 1.60044 25.3383 4.13446ZM21.9376 7.53584L20.4705 9.0029C19.4703 7.66921 17.8698 6.86899 16.0693 6.86899C14.4022 6.86899 12.9351 7.66921 11.8682 8.80285L10.4011 7.33578C11.8015 5.80203 13.802 4.80176 16.0693 4.80176C18.4033 4.80176 20.5372 5.86871 21.9376 7.53584ZM17.9575 30.1572C17.9575 31.1771 17.1307 32.0039 16.1108 32.0039C15.0909 32.0039 14.2642 31.1771 14.2642 30.1572C14.2642 29.1373 15.0909 28.3105 16.1108 28.3105C17.1307 28.3105 17.9575 29.1373 17.9575 30.1572ZM18.3632 11.0801H14.1597L15.0116 25.8539H17.4867L18.3632 11.0801Z" fill="#EA4C5F"/>
</g>
<defs>
<clipPath id="clip0">
<rect width="32" height="32" fill="white"/>
</clipPath>
</defs>
</svg>

<?xml version="1.0" encoding="UTF-8"?>
<svg width="18.338" height="32" fill="none" version="1.1" viewBox="0 0 18.338 32" xmlns="http://www.w3.org/2000/svg" xmlns:cc="http://creativecommons.org/ns#" xmlns:dc="http://purl.org/dc/elements/1.1/" xmlns:rdf="http://www.w3.org/1999/02/22-rdf-syntax-ns#">
 <metadata>
  <rdf:RDF>
   <cc:Work rdf:about="">
    <dc:format>image/svg+xml</dc:format>
    <dc:type rdf:resource="http://purl.org/dc/dcmitype/StillImage"/>
    <dc:title/>
   </cc:Work>
  </rdf:RDF>
 </metadata>
 <g transform="translate(-7)" clip-path="url(#clip0)">
  <path d="m25.338 4.1345-1.467 1.4671c-1.9339-2.1339-4.668-3.5343-7.8022-3.5343-3.0008 0-5.6682 1.3337-7.602 3.3342l-1.4671-1.4671c2.2673-2.4006 5.5348-3.9344 9.0691-3.9344 3.6677 0 7.0019 1.6004 9.2692 4.1345zm-3.4007 3.4014-1.4671 1.4671c-1.0002-1.3337-2.6007-2.1339-4.4012-2.1339-1.6671 0-3.1342 0.80022-4.2011 1.9339l-1.4671-1.4671c1.4004-1.5338 3.4009-2.534 5.6682-2.534 2.334 0 4.4679 1.067 5.8683 2.7341zm-3.9801 22.621c0 1.0199-0.8268 1.8467-1.8467 1.8467s-1.8466-0.8268-1.8466-1.8467 0.8267-1.8467 1.8466-1.8467 1.8467 0.8268 1.8467 1.8467zm0.4057-19.077h-4.2035l0.8519 14.774h2.4751z" clip-rule="evenodd" fill="#ea4c5f" fill-rule="evenodd"/>
 </g>
 <defs>
  <clipPath id="clip0">
   <rect width="32" height="32" fill="#fff"/>
  </clipPath>
 </defs>
</svg>
